docs/.gitbook/assets/icon-pin-16@light.svg

<svg width="32" height="32" viewBox="0 0 16 16" fill="none" xmlns="http://www.w3.org/2000/svg">
<rect x="0" y="0" width="16" height="16" fill="#fff"/>
<path fill-rule="evenodd" clip-rule="evenodd" d="M3.5 7C3.5 4.51472 5.51472 2.5 8 2.5C10.4853 2.5 12.5 4.51472 12.5 7C12.5 7.6927 12.2375 8.45036 11.7819 9.23147C11.3293 10.0073 10.715 10.757 10.0825 11.4196C9.45229 12.0799 8.81941 12.6376 8.34289 13.031C8.21609 13.1356 8.10077 13.2283 8 13.3078C7.89923 13.2283 7.78391 13.1356 7.65711 13.031C7.18059 12.6376 6.54771 12.0799 5.91752 11.4196C5.28502 10.757 4.67071 10.0073 4.21815 9.23147C3.7625 8.45036 3.5 7.6927 3.5 7ZM7.56375 14.8601C7.56392 14.8602 7.56407 14.8603 8 14.25L7.56407 14.8603C7.82484 15.0466 8.17516 15.0466 8.43593 14.8603L8 14.25C8.43593 14.8603 8.43608 14.8602 8.43625 14.8601L8.4367 14.8598L8.43794 14.8589L8.44186 14.856L8.4553 14.8463L8.50373 14.8109C8.54527 14.7803 8.60493 14.7359 8.68012 14.6786C8.83044 14.5641 9.04323 14.3979 9.29774 14.1878C9.80559 13.7686 10.4852 13.1701 11.1675 12.4554C11.8475 11.743 12.5457 10.8989 13.0775 9.98728C13.6062 9.08089 14 8.0573 14 7C14 3.68629 11.3137 1 8 1C4.68629 1 2 3.68629 2 7C2 8.0573 2.39375 9.08089 2.92248 9.98728C3.45429 10.8989 4.15248 11.743 4.83248 12.4554C5.51479 13.1701 6.19441 13.7686 6.70226 14.1878C6.95677 14.3979 7.16956 14.5641 7.31988 14.6786C7.39507 14.7359 7.45473 14.7803 7.49627 14.8109L7.5447 14.8463L7.55814 14.856L7.56206 14.8589L7.5633 14.8598L7.56375 14.8601ZM8 5C6.89543 5 6 5.89543 6 7C6 8.10457 6.89543 9 8 9C9.10457 9 10 8.10457 10 7C10 5.89543 9.10457 5 8 5Z" fill="#000"/>
</svg>

<svg xmlns="http://www.w3.org/2000/svg" width="32" height="32" fill="none" viewBox="0 0 16 16"><path fill="#fff" d="M0 0h16v16H0z"/><path fill="#000" fill-rule="evenodd" d="M3.5 7a4.5 4.5 0 0 1 9 0c0 .693-.262 1.45-.718 2.231-.453.776-1.067 1.526-1.7 2.189A20 20 0 0 1 8 13.308q-.151-.12-.343-.277a20 20 0 0 1-1.74-1.611c-.632-.663-1.246-1.413-1.699-2.189C3.763 8.451 3.5 7.693 3.5 7m4.064 7.86L8 14.25za.75.75 0 0 0 .872 0L8 14.25l.436.61.002-.001.004-.003.013-.01.049-.035.176-.132a22 22 0 0 0 2.487-2.223c.68-.713 1.379-1.557 1.91-2.469.53-.906.923-1.93.923-2.987A6 6 0 0 0 2 7c0 1.057.394 2.08.922 2.987.532.912 1.23 1.756 1.91 2.468a22 22 0 0 0 2.664 2.356l.049.035.013.01.004.003zM8 5a2 2 0 1 0 0 4 2 2 0 0 0 0-4" clip-rule="evenodd"/></svg>
